src/images/single-assets/ETHFI.svg

<svg xmlns="http://www.w3.org/2000/svg" width="810" height="810" fill="none"><g clip-path="url(#a)"><path fill="url(#b)" d="M0 0h810v810H0z"/><path fill="url(#c)" d="m704.581 440.792-22.713-88.537c-.651-2.604-2.748-4.629-5.352-5.28l-87.741-21.628a9.6 9.6 0 0 0-2.026-.217c-2.097-.217-4.267.434-5.859 2.025L432.823 475.223l-19.603-76.529c-.651-2.604-2.748-4.63-5.352-5.281l-75.372-18.59 147.995-147.995c.868-.868 1.374-1.953 1.736-3.038.651-1.447.868-3.11.434-4.702l-22.713-88.536c-.651-2.604-2.749-4.63-5.353-5.281l-87.741-21.628c-1.736-.434-3.472-.144-4.991.579h-.072c-.434.217-.796.506-1.23.796-.361.289-.868.434-1.157.795l-252.59 252.446s-.434.723-.723 1.085c-1.592 1.881-2.171 4.34-1.447 6.727l24.521 85.571c.723 2.459 2.604 4.34 4.991 4.991l82.171 23.581 23.581 82.099c.724 2.459 2.604 4.34 4.991 4.991l82.461 23.653 23.653 82.461c.723 2.459 2.604 4.34 4.991 4.991l85.933 24.666c.651.217 1.374.289 2.025.289.145 0 .29-.072.507-.072h.144a7.34 7.34 0 0 0 5.208-2.17l252.663-252.663c.868-.868 1.374-1.953 1.736-3.038.651-1.446.868-3.11.434-4.701zm-113.275 98.157-18.445-71.972 40.869-40.797 70.236 20.182-92.587 92.659zM448.013 682.243l-18.445-71.973 73.925-73.925 70.236 20.181zm56.999-168.105-17.649-61.483 63.436 15.624-45.787 45.787zm55.842-35.154 16.203 63.148-61.701-17.722 45.498-45.498zm2.097-22.785-71.899-17.722 92.37-92.37 19.964 69.657zm-89.766.072 19.964 69.658-73.563 73.564-71.9-17.722zm195.591-96.276 18.445 71.972-69.73-20.036-19.964-69.513zm-331.94 211.07-18.445-71.972 26.618-26.619 70.237 20.181zm9.692-120.797-17.649-61.484 63.437 15.624-45.788 45.787zm72.045 28.065-61.701-17.722 45.498-45.498 16.203 63.148zm-83.835-16.203-26.257 26.258-71.9-17.722 78.193-78.193zm-82.75-228.358 19.964 69.658-74.214 74.214-71.9-17.721zm109.586-109.586 19.964 69.658-39.784 39.783-71.9-17.721zm8.535 192.192-18.445-71.9 40.218-40.218 70.236 20.109zm-86.294-24.739-17.65-61.484 63.437 15.625-45.787 45.787zm55.842-35.154 16.202 63.148-61.628-17.722 45.498-45.498zm-57.289 57.288 70.236 20.109L226.237 460.25l-18.445-71.9zm164.56-175.554 18.445 71.972-69.73-20.036-19.964-69.513zM122.221 374.172l63.437 15.624-45.788 45.788-17.649-61.484zM150.214 446l45.498-45.498 16.203 63.147-61.628-17.721zm102.642 108.429-19.964-69.513 71.249 17.577 18.445 71.972zm91.213 41.592 63.437 15.624-45.787 45.787-17.65-61.484zm27.993 71.827 45.498-45.498 16.203 63.148-61.701-17.722z"/></g><defs><linearGradient id="b" x1="-113.063" x2="1358.19" y1="800.55" y2="-340.288" gradientUnits="userSpaceOnUse"><stop offset=".332" stop-color="#19163B"/><stop offset="1" stop-color="#4C09A2"/></linearGradient><linearGradient id="c" x1="145.946" x2="665.955" y1="497.574" y2="308.276" gradientUnits="userSpaceOnUse"><stop stop-color="#29BCFA"/><stop offset=".43" stop-color="#6464E4"/><stop offset="1" stop-color="#B45AFA"/></linearGradient><clipPath id="a"><rect width="810" height="810" fill="#fff" rx="405"/></clipPath></defs></svg>

<svg width="810" height="810" viewBox="0 0 810 810" fill="none" xmlns="http://www.w3.org/2000/svg">
<g clip-path="url(#clip0_11781_8828)">
<rect width="810" height="810" fill="url(#paint0_linear_11781_8828)"/>
<path d="M704.581 440.792L681.868 352.255C681.217 349.651 679.12 347.626 676.516 346.975L588.775 325.347C588.124 325.202 587.4 325.13 586.749 325.13C584.652 324.913 582.482 325.564 580.89 327.155L432.823 475.223L413.22 398.694C412.569 396.09 410.472 394.064 407.868 393.413L332.496 374.823L480.491 226.828C481.359 225.96 481.865 224.875 482.227 223.79C482.878 222.343 483.095 220.68 482.661 219.088L459.948 130.552C459.297 127.948 457.199 125.922 454.595 125.271L366.854 103.643C365.118 103.209 363.382 103.499 361.863 104.222H361.791C361.357 104.439 360.995 104.728 360.561 105.018C360.2 105.307 359.693 105.452 359.404 105.813L106.814 358.259C106.814 358.259 106.38 358.982 106.091 359.344C104.499 361.225 103.92 363.684 104.644 366.071L129.165 451.642C129.888 454.101 131.769 455.982 134.156 456.633L216.327 480.214L239.908 562.313C240.632 564.772 242.512 566.653 244.899 567.304L327.36 590.957L351.013 673.418C351.736 675.877 353.617 677.758 356.004 678.409L441.937 703.075C442.588 703.292 443.311 703.364 443.962 703.364C444.107 703.364 444.252 703.292 444.469 703.292C444.469 703.292 444.541 703.292 444.613 703.292C446.494 703.292 448.375 702.568 449.821 701.122L702.484 448.459C703.352 447.591 703.858 446.506 704.22 445.421C704.871 443.975 705.088 442.311 704.654 440.72L704.581 440.792ZM591.306 538.949L572.861 466.977L613.73 426.18L683.966 446.362L591.379 539.021L591.306 538.949ZM448.013 682.243L429.568 610.27L503.493 536.345L573.729 556.526L448.013 682.243ZM505.012 514.138L487.363 452.655L550.799 468.279L505.012 514.066V514.138ZM560.854 478.984L577.057 542.132L515.356 524.41L560.854 478.912V478.984ZM562.951 456.199L491.052 438.477L583.422 346.107L603.386 415.764L562.951 456.199ZM473.185 456.271L493.149 525.929L419.586 599.493L347.686 581.771L473.185 456.271ZM668.776 359.995L687.221 431.967L617.491 411.931L597.527 342.418L668.776 359.995ZM336.836 571.065L318.391 499.093L345.009 472.474L415.246 492.655L336.836 571.065ZM346.528 450.268L328.879 388.784L392.316 404.408L346.528 450.195V450.268ZM418.573 478.333L356.872 460.611L402.37 415.113L418.573 478.261V478.333ZM334.738 462.13L308.481 488.388L236.581 470.666L314.774 392.473L334.738 462.13ZM251.988 233.772L271.952 303.43L197.738 377.644L125.838 359.923L251.988 233.772ZM361.574 124.186L381.538 193.844L341.754 233.627L269.854 215.906L361.574 124.186ZM370.109 316.378L351.664 244.478L391.882 204.26L462.118 224.369L370.109 316.378ZM283.815 291.639L266.165 230.155L329.602 245.78L283.815 291.567V291.639ZM339.657 256.485L355.859 319.633L294.231 301.911L339.729 256.413L339.657 256.485ZM282.368 313.773L352.604 333.882L226.237 460.25L207.792 388.35L282.368 313.773ZM446.928 138.219L465.373 210.191L395.643 190.155L375.679 120.642L446.928 138.219ZM122.221 374.172L185.658 389.796L139.87 435.584L122.221 374.1V374.172ZM150.214 446L195.712 400.502L211.915 463.649L150.287 445.928L150.214 446ZM252.856 554.429L232.892 484.916L304.141 502.493L322.586 574.465L252.856 554.429ZM344.069 596.021L407.506 611.645L361.719 657.432L344.069 595.948V596.021ZM372.062 667.848L417.56 622.35L433.763 685.498L372.062 667.776V667.848Z" fill="url(#paint1_linear_11781_8828)"/>
</g>
<defs>
<linearGradient id="paint0_linear_11781_8828" x1="-113.063" y1="800.55" x2="1358.19" y2="-340.288" gradientUnits="userSpaceOnUse">
<stop offset="0.331609" stop-color="#19163B"/>
<stop offset="1" stop-color="#4C09A2"/>
</linearGradient>
<linearGradient id="paint1_linear_11781_8828" x1="145.946" y1="497.574" x2="665.955" y2="308.276" gradientUnits="userSpaceOnUse">
<stop stop-color="#29BCFA"/>
<stop offset="0.43" stop-color="#6464E4"/>
<stop offset="1" stop-color="#B45AFA"/>
</linearGradient>
<clipPath id="clip0_11781_8828">
<rect width="810" height="810" rx="405" fill="white"/>
</clipPath>
</defs>
</svg>
